X:1
T:Adagio
T:Adagio
T:aus der Sinfonie Nr. 9
T:Gustav Mahler
T:Arrangement: L.U.
C:Gustav Mahler
Z:Arrangement: Luan Uka
%%score 1 { ( 2 4 ) | ( 3 5 ) }
L:1/8
Q:1/8=60
M:4/4
K:Db
V:1 bass nm="Tuba" snm="Tba."
V:2 treble nm="Klavier" snm="Klav."
V:4 treble 
V:3 bass 
V:5 bass 
V:1
"^Adagio" z2!f! (A,,>A,) A,3 !>!__B,/4!>!A,/4!>!=G,/4!>!A,/4 | _C4- C!>!__B,!>!A,!>!_G, | %2
!mf! F,2 F,>E, (D,3 =C,) | (B,,G,)F,E, (D,2 A,,2) | E,2 F,>E, G,3 G, |!<(! G,F,=E,F, A,4!<)! | %6
!ff!!>(!{B,} !>!B,2 !>!A,>G, (!>!_F,3 =D,)!>)! | (!>!=C,!>!C)!>!=B,!>!=A,!<(! =G,4!<)! | %8
!ff!{=B,} !>!B,2 =A,>^G,!<(! ^F,4!<)! | !>!_B,!>!_A,!>!_G,!>!=F,"_rit.""^rit."!>(! F,3 E,!>)! | %10
"_morendo" D,8 |] %11
V:2
 z8 | z8 |!p! F2- F>E ((D3 =C)) | ((B,G))FE (D2 A,2) | A,4 ((DC))B,C | %5
!<(! D4 ((C2 !>!D/))!>!C/!>!=B,/!>!C/!<)! |!f!!>(! (D3 C) ((D2 A,2))!>)! | %7
 (=A,4!<(! ((!>!C2) =D/))!>!C/!>!=B,/!>!C/!<)! |!f! (^C6 !>!^D/)!>!C/!>!^B,/!>!C/ | %9
 ((F2 _D2)) !>!_A,4 | z8 |] %11
V:3
 z8 | z8 |!p! ((A,3 G,)) _F,2 F,>E, | D,2- D,/C,/B,,/C,/ (A,,2 D,)C,/B,,/ | A,,4 (D,3 E,) | %5
!<(! ((B,,2 C,/))B,,/=A,,/B,,/ F,4!<)! |!f!!>(! ((!>!F,2 !>!E,2)) ((!>!D,2 !>!_C,2))!>)! | %7
 ((=C,4!<(! !>!F,))!>!=E,!>!^D,!>!E,!<)! |!f!{=E,} (^C,4!<(! =G,4)!<)! | %9
 _A,2!>(! .B,/.A,/.=G,/.A,/ _G,4!>)! | z8 |] %11
V:4
 x8 | x8 | (d2 c2) (d2 _A2-) | (AB)AG- GF/E/ F2 | E4 (dc)Bc | d4 (c2 d/)c/=B/c/ | B2 A>G (_F3 =D) | %7
 C4 (c2 =d/)c/=B/c/ | =E4 (^c2 ^d/)c/^B/c/ | (f2 _d2) _A4 | x8 |] %11
V:5
 x8 | x8 | (D,2 A,,2) (=A,,2 F,,2) | (G,,2 _A,,2) D,4 | (C,2 _C,2) B,,4 | %5
 (B,2 =C/)B,/=A,/B,/ (F,3 E,) | (!>!D,2 !>!_A,,2) (!>!=A,,2 !>!=E,,2) | %7
 (F,,2 !>!=G,,/)!>!F,,/!>!=E,,/!>!F,,/ =C,4 | =A,,4 B,,4 | (_A,,4 !>!B,,)!>!A,,!>!=G,,!>!A,, | %10
 x8 |] %11

